app/assets/img/work/ttl-bprost-pc.svg

<svg fill="none" height="25" viewBox="0 0 113 25" width="113" xmlns="http://www.w3.org/2000/svg"><path d="m.92 24v-23.312h8.576c1.6107 0 2.9813.149333 4.112.448 1.1307.29867 2.0533.72 2.768 1.264s1.232 1.20533 1.552 1.984c.3307.77867.496 1.648.496 2.608 0 .52267-.0747 1.02933-.224 1.52-.1493.48-.384.93333-.704 1.36-.32.4267-.7307.816-1.232 1.168-.5013.3413-1.104.64-1.808.896 1.536.3733 2.672.9813 3.408 1.824.736.832 1.104 1.904 1.104 3.216 0 .992-.192 1.9147-.576 2.768s-.9493 1.6-1.696 2.24c-.736.6293-1.648 1.1253-2.736 1.488-1.088.352-2.3307.528-3.728.528zm5.408-9.888v5.808h3.808c.7147 0 1.296-.0907 1.744-.272.4587-.1813.816-.416 1.072-.704s.432-.6133.528-.976.144-.7307.144-1.104c0-.4267-.0587-.8107-.176-1.152-.1067-.3413-.2987-.6293-.576-.864-.2667-.2347-.624-.416-1.072-.544s-1.0133-.192-1.696-.192zm0-3.616h2.816c.59733 0 1.136-.0427 1.616-.128s.8853-.2347 1.216-.448c.3413-.21333.5973-.50667.768-.88.1813-.37333.272-.84267.272-1.408 0-.55467-.0693-1.01333-.208-1.376-.1387-.37333-.352-.672-.64-.896s-.656-.384-1.104-.48c-.4373-.096-.96-.144-1.568-.144h-3.168zm15.592 1.776h8.64v4h-8.64zm17.8917 3.936v7.792h-5.408v-23.312h8.224c1.6427 0 3.0507.197333 4.2241.592 1.184.384 2.1546.91733 2.912 1.6.768.68267 1.3333 1.488 1.696 2.416.3626.928.5439 1.93067.5439 3.008 0 1.16267-.1866 2.2293-.5599 3.2-.3734.9707-.944 1.8027-1.712 2.496s-1.744 1.2373-2.928 1.632c-1.1734.384-2.5654.576-4.1761.576zm0-4.08h2.816c1.408 0 2.4214-.336 3.0401-1.008.6186-.672.9279-1.61067.9279-2.816 0-.53333-.08-1.01867-.2399-1.456-.16-.43733-.4054-.81067-.736-1.12-.3201-.32-.7307-.56533-1.2321-.736-.4906-.17067-1.0773-.256-1.76-.256h-2.816zm15.3183 11.872v-16.592h2.944c.2453 0 .448.02133.608.064.1707.04267.3093.112.416.208.1173.08533.2027.20267.256.352.064.14933.1173.33067.16.544l.272 1.552c.608-.93867 1.2907-1.68 2.048-2.224s1.584-.816 2.48-.816c.7573 0 1.3653.18133 1.824.544l-.64 3.648c-.0427.224-.128.384-.256.48-.128.0853-.2987.128-.512.128-.1813 0-.3947-.0213-.64-.064-.2453-.0533-.5547-.08-.928-.08-1.3013 0-2.3253.6933-3.072 2.08v10.176zm20.9307-16.848c1.2587 0 2.4054.19733 3.44.592 1.0347.39467 1.92.96 2.656 1.696.7467.736 1.3227 1.632 1.7281 2.688.4159 1.0453.6239 2.224.6239 3.536 0 1.3227-.208 2.5173-.6239 3.584-.4054 1.056-.9814 1.9573-1.7281 2.704-.736.736-1.6213 1.3067-2.656 1.712-1.0346.3947-2.1813.592-3.44.592-1.2693 0-2.4266-.1973-3.472-.592-1.0346-.4053-1.9306-.976-2.688-1.712-.7466-.7467-1.328-1.648-1.744-2.704-.4053-1.0667-.608-2.2613-.608-3.584 0-1.312.2027-2.4907.608-3.536.416-1.056.9974-1.952 1.744-2.688.7574-.736 1.6534-1.30133 2.688-1.696 1.0454-.39467 2.2027-.592 3.472-.592zm0 13.424c1.1414 0 1.9787-.4 2.512-1.2.544-.8107.816-2.0373.816-3.68s-.272-2.864-.816-3.664c-.5333-.8-1.3706-1.2-2.512-1.2-1.1733 0-2.032.4-2.576 1.2s-.816 2.0213-.816 3.664.272 2.8693.816 3.68c.544.8 1.4027 1.2 2.576 1.2zm21.6345-9.536c-.128.2027-.2666.3467-.416.432-.1386.0853-.32.128-.544.128-.2346 0-.4693-.048-.704-.144-.2346-.1067-.4906-.2187-.768-.336-.2666-.1173-.5706-.224-.912-.32-.3413-.1067-.7306-.16-1.168-.16-.6293 0-1.1146.1227-1.456.368-.3306.2347-.496.5653-.496.992 0 .3093.1067.5653.32.768.224.2027.5174.384.88.544.3627.1493.7734.2933 1.232.432.4587.1387.928.2933 1.408.464s.9494.3733 1.408.608c.4587.224.8694.5067 1.232.848.3627.3307.6507.736.864 1.216.224.48.336 1.056.336 1.728 0 .8213-.1493 1.5787-.448 2.272-.2986.6933-.7466 1.2907-1.344 1.792-.5866.5013-1.3173.8907-2.192 1.168-.864.2773-1.8613.416-2.992.416-.5653 0-1.1306-.0533-1.696-.16-.5653-.1067-1.1146-.2507-1.648-.432-.5226-.1813-1.008-.3947-1.456-.64-.448-.256-.832-.528-1.152-.816l1.152-1.824c.1387-.2133.304-.3787.496-.496.192-.128.4427-.192.752-.192.288 0 .544.064.768.192.2347.128.4854.2667.752.416.2667.1493.576.288.928.416.3627.128.816.192 1.36.192.384 0 .7094-.0373.976-.112.2667-.0853.48-.1973.64-.336s.2774-.2933.352-.464c.0747-.1707.112-.3467.112-.528 0-.3307-.112-.6027-.336-.816s-.5173-.3947-.88-.544c-.3626-.16-.7786-.304-1.248-.432-.4586-.1387-.928-.2933-1.408-.464s-.9546-.3733-1.424-.608c-.4586-.2453-.8693-.5493-1.232-.912-.3626-.3733-.656-.8267-.88-1.36s-.336-1.1787-.336-1.936c0-.704.1334-1.3707.4-2 .2774-.64.688-1.2 1.232-1.68s1.2267-.85867 2.048-1.136c.8214-.288 1.7814-.432 2.88-.432.5974 0 1.1734.05333 1.728.16.5654.10667 1.0934.256 1.584.448.4907.192.9387.42133 1.344.688.4054.256.7627.53867 1.072.848zm10.0938 13.216c-.789 0-1.488-.112-2.096-.336-.597-.2347-1.104-.56-1.52-.976-.405-.4267-.715-.9387-.928-1.536s-.32-1.264-.32-2v-8.576h-1.408c-.256 0-.475-.08-.656-.24-.181-.1707-.272-.416-.272-.736v-1.936l2.64-.512.976-4.048c.128-.512.491-.768 1.088-.768h2.592v4.848h4.032v3.392h-4.032v8.24c0 .384.091.704.272.96.192.2453.464.368.816.368.181 0 .331-.016.448-.048.128-.0427.235-.0853.32-.128.096-.0533.181-.096.256-.128.085-.0427.181-.064.288-.064.149 0 .267.0373.352.112.096.064.192.1707.288.32l1.504 2.352c-.64.48-1.36.8427-2.16 1.088-.8.2347-1.627.352-2.48.352z" fill="#121111"/></svg>

<svg width="113" height="25" viewBox="0 0 113 25" fill="none" xmlns="http://www.w3.org/2000/svg">
<path d="M0.92 24V0.688H9.496C11.1067 0.688 12.4773 0.837333 13.608 1.136C14.7387 1.43467 15.6613 1.856 16.376 2.4C17.0907 2.944 17.608 3.60533 17.928 4.384C18.2587 5.16267 18.424 6.032 18.424 6.992C18.424 7.51467 18.3493 8.02133 18.2 8.512C18.0507 8.992 17.816 9.44533 17.496 9.872C17.176 10.2987 16.7653 10.688 16.264 11.04C15.7627 11.3813 15.16 11.68 14.456 11.936C15.992 12.3093 17.128 12.9173 17.864 13.76C18.6 14.592 18.968 15.664 18.968 16.976C18.968 17.968 18.776 18.8907 18.392 19.744C18.008 20.5973 17.4427 21.344 16.696 21.984C15.96 22.6133 15.048 23.1093 13.96 23.472C12.872 23.824 11.6293 24 10.232 24H0.92ZM6.328 14.112V19.92H10.136C10.8507 19.92 11.432 19.8293 11.88 19.648C12.3387 19.4667 12.696 19.232 12.952 18.944C13.208 18.656 13.384 18.3307 13.48 17.968C13.576 17.6053 13.624 17.2373 13.624 16.864C13.624 16.4373 13.5653 16.0533 13.448 15.712C13.3413 15.3707 13.1493 15.0827 12.872 14.848C12.6053 14.6133 12.248 14.432 11.8 14.304C11.352 14.176 10.7867 14.112 10.104 14.112H6.328ZM6.328 10.496H9.144C9.74133 10.496 10.28 10.4533 10.76 10.368C11.24 10.2827 11.6453 10.1333 11.976 9.92C12.3173 9.70667 12.5733 9.41333 12.744 9.04C12.9253 8.66667 13.016 8.19733 13.016 7.632C13.016 7.07733 12.9467 6.61867 12.808 6.256C12.6693 5.88267 12.456 5.584 12.168 5.36C11.88 5.136 11.512 4.976 11.064 4.88C10.6267 4.784 10.104 4.736 9.496 4.736H6.328V10.496ZM21.92 12.272H30.56V16.272H21.92V12.272ZM39.8117 16.208V24H34.4037V0.688H42.6277C44.2704 0.688 45.6784 0.885333 46.8518 1.28C48.0358 1.664 49.0064 2.19733 49.7638 2.88C50.5318 3.56267 51.0971 4.368 51.4598 5.296C51.8224 6.224 52.0037 7.22667 52.0037 8.304C52.0037 9.46667 51.8171 10.5333 51.4438 11.504C51.0704 12.4747 50.4998 13.3067 49.7318 14C48.9638 14.6933 47.9878 15.2373 46.8038 15.632C45.6304 16.016 44.2384 16.208 42.6277 16.208H39.8117ZM39.8117 12.128H42.6277C44.0357 12.128 45.0491 11.792 45.6678 11.12C46.2864 10.448 46.5957 9.50933 46.5957 8.304C46.5957 7.77067 46.5157 7.28533 46.3558 6.848C46.1958 6.41067 45.9504 6.03733 45.6198 5.728C45.2997 5.408 44.8891 5.16267 44.3877 4.992C43.8971 4.82133 43.3104 4.736 42.6277 4.736H39.8117V12.128ZM55.13 24V7.408H58.074C58.3193 7.408 58.522 7.42933 58.682 7.472C58.8527 7.51467 58.9913 7.584 59.098 7.68C59.2153 7.76533 59.3007 7.88267 59.354 8.032C59.418 8.18133 59.4713 8.36267 59.514 8.576L59.786 10.128C60.394 9.18933 61.0767 8.448 61.834 7.904C62.5913 7.36 63.418 7.088 64.314 7.088C65.0713 7.088 65.6793 7.26933 66.138 7.632L65.498 11.28C65.4553 11.504 65.37 11.664 65.242 11.76C65.114 11.8453 64.9433 11.888 64.73 11.888C64.5487 11.888 64.3353 11.8667 64.09 11.824C63.8447 11.7707 63.5353 11.744 63.162 11.744C61.8607 11.744 60.8367 12.4373 60.09 13.824V24H55.13ZM76.0607 7.152C77.3194 7.152 78.4661 7.34933 79.5007 7.744C80.5354 8.13867 81.4207 8.704 82.1567 9.44C82.9034 10.176 83.4794 11.072 83.8848 12.128C84.3007 13.1733 84.5087 14.352 84.5087 15.664C84.5087 16.9867 84.3007 18.1813 83.8848 19.248C83.4794 20.304 82.9034 21.2053 82.1567 21.952C81.4207 22.688 80.5354 23.2587 79.5007 23.664C78.4661 24.0587 77.3194 24.256 76.0607 24.256C74.7914 24.256 73.6341 24.0587 72.5887 23.664C71.5541 23.2587 70.6581 22.688 69.9007 21.952C69.1541 21.2053 68.5727 20.304 68.1567 19.248C67.7514 18.1813 67.5487 16.9867 67.5487 15.664C67.5487 14.352 67.7514 13.1733 68.1567 12.128C68.5727 11.072 69.1541 10.176 69.9007 9.44C70.6581 8.704 71.5541 8.13867 72.5887 7.744C73.6341 7.34933 74.7914 7.152 76.0607 7.152ZM76.0607 20.576C77.2021 20.576 78.0394 20.176 78.5727 19.376C79.1167 18.5653 79.3887 17.3387 79.3887 15.696C79.3887 14.0533 79.1167 12.832 78.5727 12.032C78.0394 11.232 77.2021 10.832 76.0607 10.832C74.8874 10.832 74.0287 11.232 73.4847 12.032C72.9407 12.832 72.6687 14.0533 72.6687 15.696C72.6687 17.3387 72.9407 18.5653 73.4847 19.376C74.0287 20.176 74.8874 20.576 76.0607 20.576ZM97.6952 11.04C97.5672 11.2427 97.4286 11.3867 97.2792 11.472C97.1406 11.5573 96.9592 11.6 96.7352 11.6C96.5006 11.6 96.2659 11.552 96.0312 11.456C95.7966 11.3493 95.5406 11.2373 95.2632 11.12C94.9966 11.0027 94.6926 10.896 94.3512 10.8C94.0099 10.6933 93.6206 10.64 93.1832 10.64C92.5539 10.64 92.0686 10.7627 91.7272 11.008C91.3966 11.2427 91.2312 11.5733 91.2312 12C91.2312 12.3093 91.3379 12.5653 91.5512 12.768C91.7752 12.9707 92.0686 13.152 92.4312 13.312C92.7939 13.4613 93.2046 13.6053 93.6632 13.744C94.1219 13.8827 94.5912 14.0373 95.0712 14.208C95.5512 14.3787 96.0206 14.5813 96.4792 14.816C96.9379 15.04 97.3486 15.3227 97.7112 15.664C98.0739 15.9947 98.3619 16.4 98.5752 16.88C98.7992 17.36 98.9112 17.936 98.9112 18.608C98.9112 19.4293 98.7619 20.1867 98.4632 20.88C98.1646 21.5733 97.7166 22.1707 97.1192 22.672C96.5326 23.1733 95.8019 23.5627 94.9272 23.84C94.0632 24.1173 93.0659 24.256 91.9352 24.256C91.3699 24.256 90.8046 24.2027 90.2392 24.096C89.6739 23.9893 89.1246 23.8453 88.5912 23.664C88.0686 23.4827 87.5832 23.2693 87.1352 23.024C86.6872 22.768 86.3032 22.496 85.9832 22.208L87.1352 20.384C87.2739 20.1707 87.4392 20.0053 87.6312 19.888C87.8232 19.76 88.0739 19.696 88.3832 19.696C88.6712 19.696 88.9272 19.76 89.1512 19.888C89.3859 20.016 89.6366 20.1547 89.9032 20.304C90.1699 20.4533 90.4792 20.592 90.8312 20.72C91.1939 20.848 91.6472 20.912 92.1912 20.912C92.5752 20.912 92.9006 20.8747 93.1672 20.8C93.4339 20.7147 93.6472 20.6027 93.8072 20.464C93.9672 20.3253 94.0846 20.1707 94.1592 20C94.2339 19.8293 94.2712 19.6533 94.2712 19.472C94.2712 19.1413 94.1592 18.8693 93.9352 18.656C93.7112 18.4427 93.4179 18.2613 93.0552 18.112C92.6926 17.952 92.2766 17.808 91.8072 17.68C91.3486 17.5413 90.8792 17.3867 90.3992 17.216C89.9192 17.0453 89.4446 16.8427 88.9752 16.608C88.5166 16.3627 88.1059 16.0587 87.7432 15.696C87.3806 15.3227 87.0872 14.8693 86.8632 14.336C86.6392 13.8027 86.5272 13.1573 86.5272 12.4C86.5272 11.696 86.6606 11.0293 86.9272 10.4C87.2046 9.76 87.6152 9.2 88.1592 8.72C88.7032 8.24 89.3859 7.86133 90.2072 7.584C91.0286 7.296 91.9886 7.152 93.0872 7.152C93.6846 7.152 94.2606 7.20533 94.8152 7.312C95.3806 7.41867 95.9086 7.568 96.3992 7.76C96.8899 7.952 97.3379 8.18133 97.7432 8.448C98.1486 8.704 98.5059 8.98667 98.8152 9.296L97.6952 11.04ZM107.789 24.256C107 24.256 106.301 24.144 105.693 23.92C105.096 23.6853 104.589 23.36 104.173 22.944C103.768 22.5173 103.458 22.0053 103.245 21.408C103.032 20.8107 102.925 20.144 102.925 19.408V10.832H101.517C101.261 10.832 101.042 10.752 100.861 10.592C100.68 10.4213 100.589 10.176 100.589 9.856V7.92L103.229 7.408L104.205 3.36C104.333 2.848 104.696 2.592 105.293 2.592H107.885V7.44H111.917V10.832H107.885V19.072C107.885 19.456 107.976 19.776 108.157 20.032C108.349 20.2773 108.621 20.4 108.973 20.4C109.154 20.4 109.304 20.384 109.421 20.352C109.549 20.3093 109.656 20.2667 109.741 20.224C109.837 20.1707 109.922 20.128 109.997 20.096C110.082 20.0533 110.178 20.032 110.285 20.032C110.434 20.032 110.552 20.0693 110.637 20.144C110.733 20.208 110.829 20.3147 110.925 20.464L112.429 22.816C111.789 23.296 111.069 23.6587 110.269 23.904C109.469 24.1387 108.642 24.256 107.789 24.256Z" fill="#121111"/>
</svg>
